packages/astro-components-stencil/src/icons/camera-roll.svg

<svg xmlns="http://www.w3.org/2000/svg" viewBox="0 0 24 24"><g xmlns="http://www.w3.org/2000/svg" id="camera-roll" fill-rule="nonzero">
            <path d="M14 5c0-1.1-.9-2-2-2h-1V2c0-.55-.45-1-1-1H6c-.55 0-1 .45-1 1v1H4c-1.1 0-2 .9-2 2v15c0 1.1.9 2 2 2h8c1.1 0 2-.9 2-2h6c1.1 0 2-.9 2-2V7c0-1.1-.9-2-2-2h-6zm-2 13h-2v-2h2v2zm0-9h-2V7h2v2zm4 9h-2v-2h2v2zm0-9h-2V7h2v2zm4 9h-2v-2h2v2zm0-9h-2V7h2v2z"/>
        </g></svg>

<svg width="24" height="24" viewBox="0 0 24 24" fill="none" xmlns="http://www.w3.org/2000/svg">
<path fill-rule="evenodd" clip-rule="evenodd" d="M14 5C14 3.9 13.1 3 12 3H11V2C11 1.45 10.55 1 10 1H6C5.45 1 5 1.45 5 2V3H4C2.9 3 2 3.9 2 5V20C2 21.1 2.9 22 4 22H12C13.1 22 14 21.1 14 20H20C21.1 20 22 19.1 22 18V7C22 5.9 21.1 5 20 5H14ZM10 18V16H12V18H10ZM10 7V9H12V7H10ZM16 18H14V16H16V18ZM14 9H16V7H14V9ZM20 18H18V16H20V18ZM18 9H20V7H18V9Z" fill="black"/>
</svg>
